X:1
T:Partition sans titre
C:Compositeur / Arrangeur
L:1/8
M:4/4
I:linebreak $
K:Bb
V:1 treble nm="Violon" snm="Vln."
V:1
"Gm" G3 A BABc | dBFB d^cd=e |"F" f2 fg afcA |"Gm" B2 GB"F" A2 FA |"Gm" G3 A BABc | dBFB d^cd=e | %6
"F" f2 fg afcA |1"Gm" d2 de dcBA :|2"Gm" d2 de dBFE |:"Gm" DB,DF EFGA | BABc BDFE | DFdc B2 GB | %12
"F" AccB cAFE |"Gm" DB,DF EFGA | BABc BABc | dBFB"F7" edcB |1 AFGA"Gm" BGFE :|2 %17
 AFGA"Gm" B z"F" F z |] %18
